svg/balloon.svg

<svg xmlns="http://www.w3.org/2000/svg" viewBox="0 0 52 64" enable-background="new 0 0 52 64"><style type="text/css">.st0{fill:#343434;}</style><title>balloon</title><desc>Created with Sketch.</desc><path class="st0" d="M50 38.2c-6.2 1-11 6.3-11 12.8 0 5.5-4.5 10-10 10s-10-4.5-10-10h3c1.1 0 1.7-.9 1.4-1.9l-.7-2.1.7-2.1c0-.1.1-.2.1-.4 7.2-3.8 12.5-14.8 12.5-23.2 0-10.3-8.1-21.3-18-21.3s-18 11-18 21.3c0 8.4 5.3 19.4 12.6 23.3 0 .1 0 .2.1.4l.7 2.1-.7 2.1c-.4 1 .2 1.8 1.3 1.8h2c0 7.2 5.8 13 13 13s13-5.8 13-13c0-4.8 3.4-8.9 8-9.8 0 0 1.6-.2 1.6-1.7s-1.6-1.3-1.6-1.3zm-46-16.9c0-8.8 6.9-17.3 14-17.3s14 8.5 14 17.3c0 9.5-7.5 20.7-14 20.7s-14-11.2-14-20.7zm16 24.7v2h-4v-2h4z"/></svg>

<svg xmlns="http://www.w3.org/2000/svg" viewBox="0 0 52 64"><path d="M50 38.2c-6.2 1-11 6.3-11 12.8 0 5.5-4.5 10-10 10s-10-4.5-10-10h3c1.1 0 1.7-.9 1.4-1.9l-.7-2.1.7-2.1c0-.1.1-.2.1-.4C30.7 40.7 36 29.7 36 21.3 36 11 27.9 0 18 0S0 11 0 21.3c0 8.4 5.3 19.4 12.6 23.3 0 .1 0 .2.1.4l.7 2.1-.7 2.1c-.4 1 .2 1.8 1.3 1.8h2c0 7.2 5.8 13 13 13s13-5.8 13-13c0-4.8 3.4-8.9 8-9.8 0 0 1.6-.2 1.6-1.7S50 38.2 50 38.2zM4 21.3C4 12.5 10.9 4 18 4s14 8.5 14 17.3C32 30.8 24.5 42 18 42S4 30.8 4 21.3zM20 46v2h-4v-2h4z" fill="#343434"/></svg>
